!!!!SEGMENT: pl-lzu--m-15111--001-025_noskowski-zygmunt--spiewnik-dla-dzieci-op-34-25-kosiarze.krn
!!!cenid: 18xx:4722
!!!COM: Noskowski, Zygmunt
!!!COM-rismID: pe106604
!!!CDT: 1846/05/02-1909/07/23
!!!CNT: Polish
!!!GTL: Śpiewnik dla dzieci, op. 34
!!!OTL: 25. Kosiarze
!!!OMV: 025
!!!PDT: 1890
!!!AGN: Secular; Song; Children
!!!YEC: Copyright 2022 Narodowy Instytut Fryderyka Chopina (https://polishscores.org)
!!!YEM: License CC-BY-4.0 (https://creativecommons.org/licenses/by/4.0)
!!!SMS-siglum: PL-LŹu
!!!SMS-shelfmark: M 15111
!!!SMS-variant:
!!!SMS-altvar:
!!!SMS-shelfwork: 001-025 G
!!!NIFC-rismSourceID: 1001234040
!!!NIFC-rismChildID: 1001234040
!!!NIFC-islandoraID: pl-lzu:5455
!!!URL-pdf-islandora: https://repozytorium.nifc.pl/islandora/object/pl-lzu%3A5455/datastream/PDF/view
!!!URL-scan: https://polish.musicsources.pl/pl/lokalizacje/galeria/druki-muzyczne/23228/33 @EN{Scan on Polish Music Sources Website} @PL{Skany w portalu Dziedzictwo Muzyki Polskiej w otwartym dostępie}
!!!IIIF:
!!!ONB-nifc:
!!!AIN: 1 piano 1 vox
!!!key: F
!!!OMD: Allegro energico.
**kern	**kern	**dynam	**kern	**text	**text	**dynam
*part2	*part2	*part2	*part1	*part1	*part1	*part1
*staff3	*staff2	*staff2,3	*staff1	*staff1	*staff1	*staff1
*I"[Piano]	*I"[Piano]	*	*I"[Voice]	*	*	*
*I'pf	*I'pf	*	*I'V	*	*	*
*Ipiano	*Ipiano	*	*Ivox	*	*	*
*ICklav	*ICklav	*	*ICvox	*	*	*
*IGacomp	*IGacomp	*	*IGsolo	*	*	*
*>[A,B,B,C]	*>[A,B,B,C]	*>[A,B,B,C]	*>[A,B,B,C]	*>[A,B,B,C]	*>[A,B,B,C]	*>[A,B,B,C]
*>A	*>A	*>A	*>A	*>A	*>A	*>A
*clefF4	*clefG2	*	*clefG2	*	*	*
*k[b-]	*k[b-]	*	*k[b-]	*	*	*
*F:	*F:	*	*F:	*	*	*
*M2/4	*M2/4	*	*M2/4	*	*	*
=1	=1	=1	=1	=1	=1	=1
!	!LO:TX:a:i:t=Żwawo z energią.	!LO:DY:rj	!	!	!	!
8F^\L 8A 8c	(16e^/LL	f	2r	.	.	.
.	16f/	.	.	.	.	.
8F\ 8A 8c	16bn/	.	.	.	.	.
.	16cc/JJ	.	.	.	.	.
8F\ 8A 8c	16e/LL	.	.	.	.	.
.	16f/	.	.	.	.	.
8F\J 8A 8c	16b/	.	.	.	.	.
.	16cc/JJ	.	.	.	.	.
=2	=2	=2	=2	=2	=2	=2
8F\L 8A 8c	16e/LL	.	2r	.	.	.
.	16f/	.	.	.	.	.
8F\ 8A 8c	16bn/	.	.	.	.	.
.	16cc/JJ)	.	.	.	.	.
8F\ 8A 8c	8f^/L	.	.	.	.	.
8F\J 8A 8c	8f^/J	.	.	.	.	.
=3	=3	=3	=3	=3	=3	=3
8F\L 8B- 8c	(16g/LL	.	2r	.	.	.
.	16a/	.	.	.	.	.
8F\ 8B- 8c	16b-/	.	.	.	.	.
.	16a/JJ	.	.	.	.	.
8F\ 8B- 8c	16g/LL	.	.	.	.	.
.	16a/	.	.	.	.	.
8F\J 8B-	16g/	.	.	.	.	.
.	16c/JJ)	.	.	.	.	.
=4!|:	=4!|:	=4!|:	=4!|:	=4!|:	=4!|:	=4!|:
*>B	*>B	*>B	*>B	*>B	*>B	*>B
8F\L 8A	8f/	.	2r	.	.	.
8F\J 8A 8c	4a^/	.	.	.	.	.
8F\L 8A 8c	.	.	.	.	.	.
8F\J 8A 8c	(16f/LL	.	.	.	.	.
.	16a/JJ)	.	.	.	.	.
!!LO:LB:g=original
=5	=5	=5	=5	=5	=5	=5
*	*	*	*	*v:1	*v:2	*
!	!LO:TX:b:i:t=risoluto	!	!LO:TX:a:i:t=risoluto	!	!	!LO:DY:rj
8F\L 8A 8c	4f^>/ 4cc	.	4cc\	Brzę-	Pot	f
8F\ 8A 8c	.	.	.	.	.	.
8F\ 8A 8c	4f^>/ 4a	.	4a/	-czą	o-	.
8F\J 8A 8c	.	.	.	.	.	.
=6	=6	=6	=6	=6	=6	=6
8F\L 8A 8c	8f/L 8cc	.	8cc\	ko-	-trze-	.
8F\ 8A 8c	8f/ 8a	.	8a/	-sy	-my	.
8F\ 8A 8c	8f/ 8dd	.	8dd\	w łą-	z czo-	.
8F\J 8A 8c	8f/J 8cc	.	8cc\	-ce,	-ła,	.
=7	=7	=7	=7	=7	=7	=7
8F\L 8A 8c	8f/L	.	8f/	Brzę-	A	.
8F\ 8A 8c	8f/ 8a	.	8a/	-czą,	zaś	.
8F\ 8B- 8c	8e/ 8b-	.	8b-/	po-	z ko-	.
8F\J 8B- 8c	8e/J 8g	.	8g/	-brzę-	-sy	.
=8	=8	=8	=8	=8	=8	=8
8F\L 8A 8c	8f/ 8a	.	8a/	-ku-	tra-	.
8F\ 8A 8c	4f/	.	4f/	-ją,	-wę,	.
8F\ 8A 8c	.	.	.	.	.	.
8F\J 8A 8c	8r	.	8r	.	.	.
!!LO:PB:g=original
=9	=9	=9	=9	=9	=9	=9
*	*	*	*	*v:1	*v:2	*
8F\L 8A 8c	8f/ 8a	.	8a/	Ko-	Za-	.
8F\ 8A 8c	4f/ 4cc	.	4cc^\	-sia-	-sią-	.
8F\ 8A 8c	.	.	.	.	.	.
8F\J 8A 8c	8f/ 8a	.	8a/	-rze	-dziem	.
=10	=10	=10	=10	=10	=10	=10
8F\L 8A 8c	8f/L 8cc	.	(8cc\L	się	pod	.
8F\ 8A 8c	8f/ 8a	.	8a\J)	.	.	.
8F\ 8A 8c	8f/ 8dd	.	8dd\	spie-	gru-	.
8F\J 8A 8c	8f/J 8cc	.	8cc\	-szą,	-szą	.
=11	=11	=11	=11	=11	=11	=11
8F\L 8A 8c	8f/L	.	8f/	Bo	Cie-	.
8F\ 8A 8c	8f/ 8a	.	8a/	po-	-ni-	.
8F\ 8B- 8c	8e/ 8b-	.	8b-/	-łu-	-stą	.
8F\J 8B- 8c	8e/J 8g	.	8g/	-dnie	mu-	.
!!LO:LB:g=original
=12	=12	=12	=12	=12	=12	=12
*	*	*	*	*v:1	*v:2	*
8F\L 8A 8c	8f/ 8a	.	8a/	czu-	-ra-	.
8F\ 8A 8c	4f^/	.	4f/	-ją.	-wę.	.
8F\ 8A 8c	.	.	.	.	.	.
8F\J 8A 8c	8r	.	8r	.	.	.
=13	=13	=13	=13	=13	=13	=13
8C\L 8G 8c	8e/L 8g	.	8g/	U-	A	.
8C\ 8G 8c	8e/J 8cc	.	8cc\	-wi-	tu	.
8C\ 8G 8c	8.e/L 8.g	.	8.g/	-jaj	słon-	.
8C\J 8G 8c	.	.	.	.	.	.
.	16e/Jk 16a	.	16a/	się	-ko	.
=14	=14	=14	=14	=14	=14	=14
8C\L 8G 8Bn	4f/ 4bn	.	4bn/	ra-	pa-	.
8C\ 8G 8B	.	.	.	.	.	.
8C\ 8G 8B	8f/ 8g	.	8g/	-źno,	-trzy	.
8C\J 8G 8B	8r	.	8r	.	.	.
=15	=15	=15	=15	=15	=15	=15
8C\L 8G 8Bn	8.f/L 8.a	.	8.a/	O-	Na	.
8C\J 8G 8B	.	.	.	.	.	.
.	16f/Jk 16bn	<	16b-/	-stra	na-	<
8C\L 8G 8B	8f/L 8cc	.	8cc\	mo-	-szą	.
8C\J 8G 8B	8f/J 8dd	[	8dd\	-ja	ro-	[
!!LO:LB:g=original
=16	=16	=16	=16	=16	=16	=16
*	*	*	*	*v:1	*v:2	*
8C\L 8G 8c	4e/ 4ee	.	4ee\	ko-	-bo-	.
8C\ 8G 8c	.	.	.	.	.	.
8C\ 8G 8c	8e/ 8cc	.	8cc\	-so,	-tę	.
8C\J 8G 8c	8r	.	8r	.	.	.
=17	=17	=17	=17	=17	=17	=17
8C\L 8B-X 8c	8e/L 8g	p	8g/	Nim	I	.
8C\J 8B- 8c	8e/J 8a	.	8a/	wy-	o-	.
8C\L 8B- 8c	8e/L 8b-	.	8b-/	-sie-	-twie-	.
8C\J 8B- 8c	(16e/L 16a	.	(16a/LL	-czem	-ra	.
.	16g/JJ)	.	16g/JJ)	.	.	.
=18	=18	=18	=18	=18	=18	=18
8C\L 8A 8c	4f/ 4dd	.	4dd\	po	z dzi-	.
8C\ 8A 8c	.	.	.	.	.	.
8C\ 8A 8c	8f/ 8cc	.	8cc\	las,	-wu	.
8C\J 8A 8c	8r	.	8r	.	.	.
=19	=19	=19	=19	=19	=19	=19
4C^\ 4G 4c	4e^/ 4b-	f	4b-^>/	O-	Swo-	.
4C^\ 4B- 4c	4e^/ 4g	.	4g^>/	-biad	-je	.
!!LO:PB:g=original
=20	=20	=20	=20	=20	=20	=20
*	*	*	*	*v:1	*v:2	*
8.F\L 8.A 8.c	8.f/L	.	8.f/	nam	o-	.
.	.	>	.	.	.	.
16F\Jk 16A 16c	16g/Jk	.	16g/	przy-	-czy	.
8F\L 8A 8c	8a/L	.	8a/	-nio-	zło-	.
8F\J 8A 8c	8f/J	]	8f,/	-są.	-te.	.
=21	=21	=21	=21	=21	=21	=21
!	!	!LO:DY:rj	!	!	!	!
8C\L 8B- 8c	8e/L 8g	p	8g/	Nim	I	.
8C\J 8B- 8c	8e/J 8a	.	8a/	wy-	o-	.
8C\L 8B- 8c	8e/L 8b-	.	8b-/	-sie-	-twie-	.
8B-\J 8c	(16e/L 16a	.	(16a/LL	-czem	-ra	.
.	16g/JJ)	.	16g/JJ)	.	.	.
=22	=22	=22	=22	=22	=22	=22
4A^\ 4c	4f^/ 4cc	<	4cc\	po	z dzi-	.
4A-X^\ 4c	4f^/ 4dd	.	4dd,\	las,	-wu	.
=23	=23	=23	=23	=23	=23	=23
8G\L 8B- 8c	8e\L 8b- 8ee	.	8ee\	O-	Swo-	.
8G\J 8B- 8c	8e\J 8b- 8dd	.	8dd\	-biad	-je	.
8C\L 8G 8c	8e\L 8b- 8ee	.	8ee\	nam	o-	.
8C\J 8G 8c	8e\J 8b- 8cc	.	8cc\	przy	-czy	.
!!LO:LB:g=original
=24	=24	=24	=24	=24	=24	=24
*	*	*	*	*v:1	*v:2	*
!	!	!LO:DY:rj	!	!	!	!
8F\L 8A 8c	4f/ 4a 4ff	f	2ff\	nio-	zło-	.
8F\ 8A 8c	.	.	.	.	.	.
8F\ 8A 8c	(16e^/LL	.	.	.	.	.
.	16f/	.	.	.	.	.
8F\J 8A 8c	16bn/	.	.	.	.	.
.	16cc/JJ	.	.	.	.	.
=25	=25	=25	=25	=25	=25	=25
8F\L 8A 8c	16e/LL	.	4f/	-są.	-te.	.
.	16f/	.	.	.	.	.
8F\ 8A 8c	16bn/	.	.	.	.	.
.	16cc/JJ)	.	.	.	.	.
8F\ 8A 8c	8f^/L	.	4r	.	.	.
8F\J 8A 8c	8f^/J	.	.	.	.	.
=26	=26	=26	=26	=26	=26	=26
8F\L 8B- 8c	(16g/LL	.	2r	.	.	.
.	16a/	.	.	.	.	.
8F\ 8B- 8c	16b-/	.	.	.	.	.
.	16a/JJ	.	.	.	.	.
8F\ 8B- 8c	16g/LL	.	.	.	.	.
.	16a/	.	.	.	.	.
8F\J 8B-	16g/	.	.	.	.	.
.	16c/JJ)	.	.	.	.	.
=27:|!	=27:|!	=27:|!	=27:|!	=27:|!	=27:|!	=27:|!
*>C	*>C	*>C	*>C	*>C	*>C	*>C
8F\L 8A	8f/L	.	2r	.	.	.
8F^\J 8A	8c^/J 8f	.	.	.	.	.
8F^\ 8A	8c^/ 8f	.	.	.	.	.
8r	8r	.	.	.	.	.
==	==	==	==	==	==	==
*-	*-	*-	*-	*-	*-	*-
!!!system-decoration: p1{p2}
!!!RDF**kern: > = above
!!!RDF**kern: < = below
!!!ENC: Andrzej Gręziak
!!!END: 2025-03-05
!!!ENC: Marta Lawrence
!!!END: 2025-03-21
